assets/01_base/Base_15.svg

<svg width="500" height="500" viewBox="0 0 500 500" fill="none" xmlns="http://www.w3.org/2000/svg">
<g clip-path="url(#clip0_70_161)">
<path d="M360.287 462C340.666 462 321.776 454.096 305.143 439.251C288.511 454.096 269.62 462 250 462C230.38 462 211.489 454.096 194.857 439.251C178.224 454.082 159.334 462 139.713 462C104.355 462 72.7012 437.381 50.5888 392.694C31.5055 354.137 21 303.457 21 250C21 196.543 31.5055 145.876 50.6026 107.306C72.7012 62.6186 104.355 38 139.713 38C159.334 38 178.224 45.9038 194.857 60.7491C211.489 45.9038 230.38 38 250 38C269.62 38 288.511 45.9038 305.143 60.7491C321.776 45.9038 340.666 38 360.287 38C395.645 38 427.299 62.6186 449.411 107.306C468.495 145.876 479.014 196.557 479.014 250.014C479.014 303.471 468.508 354.137 449.411 392.708C427.299 437.395 395.645 462.014 360.287 462.014V462Z" fill="#0065B1"/>
<path d="M360.287 65.2715C339.565 65.2715 320.468 79.2234 305.144 102.701C289.819 79.2234 270.722 65.2715 250 65.2715C229.279 65.2715 210.181 79.2234 194.857 102.701C179.532 79.2234 160.435 65.2715 139.714 65.2715C89.2378 65.2715 48.3174 147.979 48.3174 250C48.3174 352.021 89.2378 434.729 139.714 434.729C160.435 434.729 179.532 420.777 194.857 397.299C210.181 420.777 229.279 434.729 250 434.729C270.722 434.729 289.819 420.777 305.144 397.299C320.468 420.777 339.565 434.729 360.287 434.729C410.763 434.729 451.683 352.021 451.683 250C451.683 147.979 410.763 65.2715 360.287 65.2715Z" fill="#319ED7"/>
</g>
<defs>
<clipPath id="clip0_70_161">
<rect width="458" height="424" fill="white" transform="translate(21 38)"/>
</clipPath>
</defs>
</svg>

<svg xmlns="http://www.w3.org/2000/svg" width="500" height="500" fill="none" viewBox="0 0 500 500"><g clip-path="url(#Base_15_svg_clip0_70_161)"><g clip-path="url(#Base_15_svg_clip1_70_161)"><path fill="#0065b1" d="M360.287 462c-19.621 0-38.511-7.904-55.144-22.749C288.511 454.096 269.62 462 250 462s-38.511-7.904-55.143-22.749C178.224 454.082 159.334 462 139.713 462c-35.358 0-67.012-24.619-89.124-69.306C31.506 354.137 21 303.457 21 250s10.506-104.124 29.603-142.694C72.7 62.619 104.355 38 139.713 38c19.621 0 38.511 7.904 55.144 22.75C211.489 45.903 230.38 38 250 38s38.511 7.904 55.143 22.75C321.776 45.903 340.666 38 360.287 38c35.358 0 67.012 24.619 89.124 69.306 19.084 38.57 29.603 89.251 29.603 142.708s-10.506 104.123-29.603 142.694c-22.112 44.687-53.766 69.306-89.124 69.306z"/><path fill="#319ed7" d="M360.287 65.272c-20.722 0-39.819 13.951-55.143 37.429-15.325-23.478-34.422-37.43-55.144-37.43-20.721 0-39.819 13.952-55.143 37.43-15.325-23.478-34.422-37.43-55.143-37.43-50.476 0-91.397 82.708-91.397 184.729s40.92 184.729 91.397 184.729c20.721 0 39.818-13.952 55.143-37.43 15.324 23.478 34.422 37.43 55.143 37.43s39.819-13.952 55.144-37.43c15.324 23.478 34.421 37.43 55.143 37.43 50.476 0 91.396-82.708 91.396-184.729s-40.92-184.728-91.396-184.728"/></g></g><defs><clipPath id="Base_15_svg_clip0_70_161"><rect width="500" height="500" fill="#fff"/></clipPath><clipPath id="Base_15_svg_clip1_70_161"><rect width="458" height="424" fill="#fff" transform="translate(21 38)"/></clipPath></defs></svg>
